web/packages/design/src/ResourceIcon/assets/postgres.svg

<svg width="72" height="72" viewBox="0 0 72 72" fill="none" xmlns="http://www.w3.org/2000/svg">
<path d="M56.6992 51.0923C56.6992 51.0923 57.845 51.2124 60.281 51.0923C62.717 50.9722 65.3945 49.8179 67.2624 48.9653C72.3299 46.254 71.9091 40.2899 67.2624 41.0651C63.2557 41.7336 61.9809 41.369 61.9809 41.369C68.9016 31.281 73.0297 13.7789 69.1444 8.06646C59.9004 -3.75301 43.7326 1.17314 43.4648 1.32088L43.3787 1.33627C41.6246 0.966915 40.7296 0.863104 38.4832 0.832324C34.4582 0.770764 31.8222 1.1434 29.5019 2.90093C29.5019 2.90093 -0.225995 -9.5 1.27258 20.403C1.6533 27.9998 8.69057 61.9195 21.5 52.5C21.5 52.5 23.7874 54.1575 25.5 54.5C28 55 30.5 55 33 54C33 54 33.0813 56.0987 33.2165 59.3503C33.3549 62.6807 33.8199 64.6686 34.5 66.5C35.8356 69.6601 39.8884 73.0172 46.1967 71.6937C51.468 70.564 54.7567 67.1966 55.121 62.2134" fill="black"/>
<path d="M66.526 43.8712C58.3827 45.5509 57.8229 42.7938 57.8229 42.7938C66.4209 30.0357 70.0152 13.8411 66.9134 9.8776C58.4515 -0.934142 43.8034 4.17911 43.559 4.31186L43.4803 4.32595C41.8715 3.99197 40.0709 3.79301 38.0473 3.75998C34.3626 3.6996 31.5676 4.72597 29.4467 6.33434C29.4467 6.33434 3.31605 -4.43045 4.53135 19.8731C4.78988 25.0435 11.942 58.9946 20.4727 48.7398C23.5907 44.99 26.6033 41.8194 26.6033 41.8194C28.0996 42.8134 29.8909 43.3204 31.7688 43.1383C32.0341 42.913 31.9232 44.1508 31.9731 44.4745C29.7755 46.9299 30.4212 47.361 26.0281 48.2653C21.5828 49.1814 24.1942 50.8125 25.8992 51.2387C27.9662 51.7556 32.7482 52.4878 35.9794 47.9647C36 52.5 36 60.5 37 64C37.6785 65.8455 39.079 70.0562 44.8543 68.8187C49.68 67.7846 52.1807 65.1046 52.5286 60.6344C52.703 58.3897 53.5464 56 53.8176 53.7397C54.3343 49.4317 53.8996 48.0419 56.8727 48.6883C59.3369 48.9048 62.0641 48.671 64.3284 47.6186C67.9479 45.9388 70.0948 43.1342 66.526 43.8712Z" fill="#336791"/>
<path d="M55.2525 22.2222C55.2323 22.0775 55.1394 21.9684 55.0285 21.8917C54.9176 21.8151 54.7744 21.7599 54.616 21.7224C54.298 21.647 53.883 21.6344 53.4436 21.6956C53.0042 21.7569 52.6085 21.8824 52.3231 22.0419C52.1809 22.1213 52.0581 22.2136 51.9724 22.3176C51.8865 22.4217 51.8269 22.552 51.8465 22.6967C51.8643 22.823 51.94 22.9571 52.0356 23.0759C52.1346 23.1989 52.2688 23.3233 52.4281 23.4312C52.7459 23.6464 53.1805 23.8068 53.6561 23.7406C54.1295 23.6749 54.5369 23.3994 54.8168 23.1053C54.9577 22.9573 55.071 22.7998 55.147 22.653C55.2193 22.5135 55.2714 22.3577 55.2525 22.2222Z" fill="white"/>
<path d="M30.5609 24.6128C29.526 24.4498 28.6443 23.2664 28.7891 22.7734C28.9338 22.2804 29.9827 22.1193 30.7625 22.2429C31.7979 22.4065 32.5906 22.9099 32.5345 23.3669C32.4785 23.8234 31.5941 24.7764 30.5609 24.6128Z" fill="white"/>
<path fill-rule="evenodd" clip-rule="evenodd" d="M67.4961 23.2061C65.9399 29.2312 63.0044 36.2825 58.8759 42.5924C58.9781 42.6875 59.1548 42.8154 59.4508 42.938C60.3358 43.3043 62.2752 43.6142 66.2667 42.7903C66.7565 42.6891 67.1989 42.6374 67.5836 42.6506C67.9458 42.663 68.3879 42.7367 68.7523 43.014C69.1881 43.3455 69.3458 43.8358 69.3016 44.2943C69.2637 44.6886 69.0843 45.0371 68.9076 45.3037C68.5445 45.8513 67.9451 46.4177 67.2475 46.9376C66.535 47.4686 65.6623 47.9941 64.6977 48.4421C63.0419 49.2105 60.4811 49.657 58.3424 49.6805C57.2707 49.6922 56.216 49.5998 55.3859 49.3418C55.3258 49.3231 55.2635 49.3024 55.1997 49.2795C54.8331 52.6584 54.0434 59.02 53.5885 61.6559C53.192 63.9556 52.5115 65.7901 51.1737 67.1806C49.8379 68.5691 47.9678 69.389 45.4629 69.926C42.3148 70.6005 40.121 69.9138 38.6098 68.6407C37.1597 67.4193 36.4683 65.7583 36.0745 64.7741C35.8229 64.1449 35.648 63.15 35.5151 61.9939C35.3783 60.8034 35.2753 59.334 35.2047 57.6881C35.1101 55.4834 35.0725 52.9417 35.0918 50.2945C33.9914 51.2391 32.4975 52.095 30.7912 52.4542C29.4287 52.7411 27.2567 52.5557 25.586 52.1341C24.7526 51.9237 23.9123 51.6234 23.3235 51.2055C23.0314 50.9983 22.6993 50.6912 22.5297 50.2541C22.3348 49.7517 22.4133 49.2327 22.6914 48.7982C23.1045 48.1526 23.7478 47.8002 24.3367 47.5814C24.9256 47.3627 25.5975 47.2296 26.1961 47.1144L26.325 47.0896C26.9051 46.9782 27.4335 46.8767 27.9166 46.7294C28.4332 46.5718 28.808 46.3865 29.0631 46.1596C29.6636 45.6259 30.0782 45.0672 30.4963 44.504C30.5828 44.3874 30.6696 44.2705 30.7582 44.1536L30.761 44.1498C30.7596 44.131 30.7583 44.1121 30.7571 44.0933C29.2779 44.0571 27.879 43.6503 26.6377 42.9576C26.5828 43.016 26.5208 43.082 26.452 43.1555C26.142 43.4867 25.6955 43.9679 25.152 44.5658C24.0644 45.7623 22.5906 47.4237 21.044 49.2844C19.8795 50.6842 18.5934 51.5038 17.1872 51.5635C15.7874 51.623 14.5515 50.9168 13.5114 49.9059C11.4593 47.9114 9.69435 44.2723 8.24818 40.3385C6.78466 36.3575 5.58841 31.9035 4.74215 28.1266C3.90067 24.371 3.38791 21.2075 3.31865 19.8224C3.00629 13.5774 4.44436 9.3802 6.97558 6.69882C9.49801 4.02675 12.9429 3.03405 16.2792 2.84274C19.6168 2.65136 22.96 3.25311 25.4425 3.8881C26.6895 4.20706 27.7324 4.53786 28.4657 4.78974C28.8051 4.90628 29.0787 5.00613 29.2762 5.08036C31.5159 3.53946 34.3801 2.59845 38.0072 2.65794C39.7914 2.68719 41.4446 2.90805 42.9732 3.27857L43.0066 3.26555C43.0959 3.23134 43.239 3.18134 43.4255 3.12158C43.8034 3.00047 44.3931 2.82856 45.1495 2.65174C46.6603 2.2986 48.8569 1.92099 51.3726 1.89762C56.4007 1.85091 62.8189 3.2263 67.4717 9.17161C68.4726 10.4506 68.819 12.511 68.7832 14.8303C68.7465 17.2083 68.3021 20.0855 67.4961 23.2061ZM55.0122 11.2371C53.0093 8.67659 50.194 6.09387 46.4216 4.44046C47.7547 4.1732 49.4764 3.93328 51.3913 3.91549C56.0574 3.87215 61.7547 5.14072 65.8825 10.4152C66.4325 11.1181 66.7999 12.5684 66.7655 14.7991C66.7319 16.971 66.3219 19.6831 65.5423 22.7014C64.1046 28.2676 61.4385 34.7669 57.7132 40.6691C57.6595 40.6015 57.6053 40.5337 57.5513 40.4663L57.5495 40.4641C57.511 40.4161 57.4724 40.3678 57.4345 40.3202C58.0036 39.4645 58.3404 38.4426 58.5397 37.4019C58.7863 36.1147 58.8391 34.7092 58.8079 33.3651C58.7766 32.0172 58.6597 30.6943 58.5533 29.572L58.5174 29.1961C58.4246 28.2247 58.3529 27.4741 58.3529 26.9761C58.3529 26.0238 58.5073 25.181 58.6793 24.2418L58.6795 24.2407C58.7119 24.064 58.7449 23.8839 58.7776 23.699C58.948 22.7355 59.0983 21.689 59.0205 20.4915C59.1256 20.3298 59.1654 20.1781 59.1766 20.1314C59.2186 19.9567 59.2157 19.7944 59.2104 19.6973C59.1989 19.4832 59.1527 19.2366 59.0924 18.9885C58.9682 18.4772 58.7424 17.7936 58.4133 17.0028C57.7534 15.4169 56.6482 13.3287 55.0122 11.2371ZM57.017 20.8123C53.5475 20.4031 51.886 21.0669 51.1297 21.9323C50.2908 22.8922 50.1774 24.5311 50.7251 26.727C51.2567 28.8581 52.3296 31.181 53.3597 33.1578C53.851 34.1007 54.3248 34.9503 54.717 35.6537L54.7775 35.7622C55.1553 36.4399 55.4915 37.0428 55.641 37.4052C55.7989 37.7879 55.9692 38.1353 56.1463 38.4541C56.3179 38.0387 56.4548 37.56 56.5578 37.0223C56.7665 35.9324 56.82 34.6857 56.7905 33.4118C56.761 32.1417 56.6504 30.8806 56.5443 29.7625L56.5075 29.3771C56.4175 28.4389 56.3349 27.5785 56.3349 26.9761C56.3349 25.8245 56.5275 24.7804 56.7006 23.8413C56.7316 23.6735 56.762 23.5087 56.7905 23.3476C56.941 22.4961 57.053 21.6889 57.017 20.8123ZM36.653 44.2433C35.9046 43.0793 34.5551 42.3438 32.9299 42.5759C32.956 42.4675 32.9851 42.3557 33.0172 42.2402C33.2118 41.5405 33.4921 40.7886 33.8115 39.9319L33.8151 39.9224C33.8637 39.7919 33.9133 39.659 33.9635 39.5235C34.134 39.0648 34.3292 38.6318 34.5499 38.142C34.6792 37.8551 34.8174 37.5486 34.9644 37.2062C35.3457 36.3181 35.7341 35.2978 36.0165 34.0533C36.5838 31.5532 36.6998 28.2555 35.6418 23.3625C35.1918 21.282 34.0458 20.0031 32.512 19.4109C31.0558 18.8485 29.3871 18.9579 27.9089 19.2988C26.4118 19.6442 24.9819 20.2566 23.9198 20.8481C23.8916 20.8637 23.8637 20.8794 23.8359 20.8952C23.856 20.6457 23.8808 20.3789 23.9111 20.0971C24.1033 18.312 24.5176 15.9544 25.3985 13.6201C26.2802 11.2836 27.61 9.02155 29.6026 7.3625C31.5761 5.71941 34.2618 4.61475 37.9741 4.67562C45.4742 4.79859 50.4078 8.6261 53.4227 12.4804C54.9336 14.412 55.9513 16.3388 56.5502 17.7781C56.7047 18.1492 56.7966 18.3921 56.9267 18.7725C53.411 18.6686 50.9903 19.0253 49.6103 20.6044C48.0707 22.3659 48.1923 24.9108 48.7672 27.2154C49.3582 29.5848 50.522 32.079 51.5701 34.0904C52.075 35.0592 52.561 35.9308 52.9521 36.6321L53.0034 36.7241C53.4216 37.4742 53.6822 37.9486 53.7755 38.1747C54.388 39.6596 55.1578 40.6961 55.7738 41.474C55.8571 41.5792 55.9346 41.6761 56.007 41.7666L56.0085 41.7685C56.2131 42.0242 56.3774 42.2295 56.5164 42.4275L56.5282 42.4444L56.5096 42.4498C56.2901 42.5135 56.0179 42.5989 55.7344 42.7266C55.1487 42.9904 54.5165 43.4346 54.0751 44.2437C53.6891 44.9515 53.4937 45.8567 53.5133 47.0083C53.3683 47.2965 53.2671 47.7103 53.2739 48.3042C53.2966 50.2871 52.0844 58.5059 51.5999 61.3127C51.2346 63.4318 50.6563 64.8077 49.7195 65.7815C48.7807 66.7572 47.3603 67.4555 45.0399 67.9529C42.4125 68.5157 40.8784 67.9133 39.9098 67.0974C38.88 66.2299 38.3392 65.0022 37.9482 64.0247C37.5571 63.0473 37.3866 60.604 37.5199 61.7635C37.3905 60.6382 37.2903 59.2208 37.2208 57.6015C37.0939 54.6453 37.1029 49.7518 37.153 47.4143C37.1545 47.3457 37.1551 47.2793 37.1548 47.2151C37.3865 46.1181 37.1615 45.0343 36.653 44.2433ZM21.7314 22.8339C21.7315 22.6805 21.7338 22.4593 21.7425 22.1799C21.7598 21.6216 21.8027 20.8292 21.9047 19.8812C22.1082 17.9907 22.55 15.4528 23.5105 12.9076C24.3489 10.686 25.5974 8.41991 27.4629 6.58109C26.8027 6.36227 25.9419 6.09877 24.9424 5.84312C22.5601 5.23374 19.4422 4.68265 16.3947 4.85739C13.3458 5.03222 10.4815 5.92462 8.44299 8.08406C6.41326 10.2342 5.03865 13.8149 5.33409 19.7216C5.3941 20.9218 5.87236 23.9412 6.71129 27.6854C7.54542 31.4082 8.71896 35.7708 10.1422 39.6422C11.5828 43.5609 13.2216 46.8102 14.9179 48.4589C15.7521 49.2697 16.4766 49.5739 17.1016 49.5474C17.7205 49.5211 18.5241 49.1581 19.4923 47.9941C21.063 46.1046 22.5573 44.4202 23.6587 43.2085C24.2081 42.6041 24.6602 42.1167 24.9761 41.7793C22.5113 39.6057 21.0722 36.1368 21.5951 32.3974C22.0836 28.9049 21.9075 25.8919 21.8077 24.1842C21.7815 23.7351 21.7313 23.283 21.7314 22.8339ZM35.2078 46.0478C35.1688 45.7688 35.0764 45.5226 34.9555 45.3346C34.6111 44.7988 34.0181 44.4589 33.2151 44.5736C33.0697 44.5944 32.8715 44.7059 32.3665 45.3723C32.2976 45.4632 32.2246 45.562 32.1469 45.6671C31.7285 46.2333 31.1747 46.9826 30.4038 47.6679C29.8394 48.1695 29.1517 48.4623 28.5054 48.6595C27.914 48.8399 27.2819 48.961 26.7252 49.0676L26.5777 49.0959C25.9545 49.2159 25.4464 49.3219 25.0393 49.4731C24.8708 49.5357 24.7431 49.5978 24.6462 49.6572C24.9523 49.8304 25.4414 50.0163 26.0799 50.1775C27.5963 50.5602 29.431 50.6784 30.3755 50.4795C32.4093 50.0514 34.0788 48.6947 34.7956 47.6707C34.9647 47.4291 35.0778 47.181 35.1458 46.9378C35.1509 46.7323 35.1563 46.5268 35.162 46.3213C35.1646 46.2276 35.1803 46.1357 35.2078 46.0478ZM57.2033 44.3506C57.1553 44.3641 57.1105 44.3767 57.0718 44.3879C56.8843 44.4423 56.718 44.4968 56.5631 44.5666C56.2718 44.6977 56.0275 44.8786 55.8466 45.2102C55.6592 45.5538 55.4884 46.1548 55.5388 47.2152C55.5883 47.255 55.7107 47.3296 55.9848 47.4148C56.5266 47.5831 57.3424 47.6734 58.3202 47.6626C60.2802 47.6411 62.5336 47.2217 63.8477 46.6119C64.6924 46.2195 65.4451 45.7642 66.0415 45.3196C66.3093 45.1201 66.5352 44.9304 66.7196 44.7574L66.6747 44.7666C62.5227 45.6236 60.1101 45.3949 58.679 44.8025C58.2609 44.6294 57.9279 44.4256 57.6643 44.2115C57.5217 44.2613 57.3469 44.3103 57.2033 44.3506ZM55.5093 47.1845C55.5093 47.1845 55.5142 47.1885 55.5193 47.1977C55.5111 47.1894 55.5093 47.1845 55.5093 47.1845ZM31.924 39.2178C31.9734 39.0856 32.0227 38.9532 32.0718 38.821C32.2637 38.3047 32.5088 37.7595 32.7502 37.2225C32.8736 36.9481 32.9961 36.6756 33.1102 36.41C33.4641 35.5856 33.803 34.6887 34.0485 33.6068C34.5371 31.4539 34.6797 28.4611 33.6694 23.7891C33.3486 22.3057 32.6239 21.6172 31.7851 21.2933C30.8687 20.9395 29.6628 20.9652 28.3624 21.2652C27.0809 21.5608 25.8282 22.0951 24.9015 22.6111C24.4373 22.8696 24.0801 23.1095 23.8532 23.294C23.8276 23.3149 23.8049 23.334 23.7848 23.3514C23.7918 23.4935 23.8024 23.6693 23.8149 23.8758C23.9118 25.476 24.1199 28.9141 23.5937 32.6769C22.8729 37.8306 26.6383 42.0632 30.9744 42.0768C31.0052 41.9504 31.0382 41.8246 31.073 41.6995C31.2927 40.9094 31.6077 40.0655 31.924 39.2178Z" fill="white"/>
</svg>

<svg xmlns="http://www.w3.org/2000/svg" width="72" height="72" fill="none" viewBox="0 0 72 72"><path fill="#000" d="M56.7 51.092s1.145.12 3.581 0 5.113-1.274 6.981-2.127c5.068-2.711 4.647-8.675 0-7.9-4.006.669-5.281.304-5.281.304 6.92-10.088 11.049-27.59 7.163-33.303C59.9-3.753 43.733 1.173 43.464 1.321l-.085.015c-1.754-.37-2.65-.473-4.896-.504-4.025-.061-6.66.311-8.981 2.069 0 0-29.728-12.401-28.23 17.502C1.654 28 8.692 61.92 21.5 52.5c0 0 2.287 1.657 4 2 2.5.5 5 .5 7.5-.5 0 0 .081 2.099.217 5.35.138 3.33.603 5.319 1.283 7.15 1.336 3.16 5.388 6.517 11.697 5.194 5.271-1.13 8.56-4.497 8.924-9.48"/><path fill="#336791" d="M66.526 43.871c-8.143 1.68-8.703-1.077-8.703-1.077 8.598-12.758 12.192-28.953 9.09-32.916C58.452-.934 43.803 4.179 43.56 4.312l-.079.014c-1.608-.334-3.41-.533-5.433-.566-3.684-.06-6.48.966-8.6 2.574 0 0-26.13-10.764-24.916 13.54.259 5.17 7.411 39.12 15.942 28.866 3.118-3.75 6.13-6.92 6.13-6.92 1.497.993 3.288 1.5 5.166 1.318.265-.225.154 1.013.204 1.337-2.197 2.455-1.552 2.886-5.945 3.79-4.445.916-1.834 2.547-.129 2.974 2.067.517 6.85 1.249 10.08-3.274C36 52.5 36 60.5 37 64c.678 1.846 2.079 6.056 7.854 4.819 4.826-1.034 7.327-3.714 7.675-8.185.174-2.244 1.017-4.634 1.289-6.894.516-4.308.082-5.698 3.055-5.052 2.464.217 5.191-.017 7.455-1.07 3.62-1.68 5.767-4.484 2.198-3.747"/><path fill="#fff" d="M55.253 22.222a.5.5 0 0 0-.224-.33 1.2 1.2 0 0 0-.413-.17c-.318-.075-.733-.088-1.172-.026-.44.06-.836.186-1.12.346a1.2 1.2 0 0 0-.352.276.5.5 0 0 0-.126.379c.018.126.094.26.19.379.099.123.233.247.392.355.318.215.753.376 1.228.31.474-.066.88-.342 1.16-.636.142-.148.255-.305.331-.452.072-.14.124-.295.105-.43m-24.692 2.39c-1.034-.163-1.916-1.347-1.77-1.84.144-.493 1.193-.654 1.973-.53 1.035.164 1.828.667 1.771 1.124-.056.456-.94 1.41-1.973 1.246"/><path fill="#fff" fill-rule="evenodd" d="M67.496 23.206c-1.556 6.025-4.492 13.077-8.62 19.386.102.096.279.223.575.346.885.366 2.824.676 6.816-.148.49-.1.932-.153 1.317-.14.362.013.804.087 1.168.364.436.331.594.822.55 1.28-.038.395-.218.743-.394 1.01-.364.547-.963 1.114-1.66 1.634a14.7 14.7 0 0 1-2.55 1.504c-1.656.769-4.217 1.215-6.356 1.239-1.071.011-2.126-.081-2.956-.34l-.186-.062c-.367 3.38-1.157 9.741-1.611 12.377-.397 2.3-1.078 4.134-2.415 5.525-1.336 1.388-3.206 2.208-5.711 2.745-3.148.674-5.342-.012-6.853-1.285-1.45-1.222-2.142-2.883-2.535-3.867-.252-.63-.427-1.624-.56-2.78-.137-1.19-.24-2.66-.31-4.306a151 151 0 0 1-.113-7.394c-1.1.945-2.594 1.801-4.3 2.16-1.363.287-3.535.102-5.206-.32-.833-.21-1.674-.51-2.262-.928-.293-.208-.625-.515-.794-.952-.195-.502-.117-1.021.161-1.456.414-.645 1.057-.998 1.646-1.217.589-.218 1.26-.351 1.86-.467l.128-.024c.58-.112 1.108-.213 1.592-.36.516-.158.891-.343 1.146-.57.6-.534 1.015-1.093 1.433-1.656l.262-.35.003-.004-.004-.057a8.9 8.9 0 0 1-4.12-1.135 125 125 0 0 0-1.485 1.608 144 144 0 0 0-4.108 4.718c-1.165 1.4-2.45 2.22-3.857 2.28-1.4.059-2.636-.647-3.676-1.658-2.052-1.995-3.817-5.634-5.263-9.567-1.463-3.981-2.66-8.435-3.506-12.212-.841-3.756-1.354-6.92-1.423-8.305C3.006 13.577 4.444 9.38 6.976 6.7c2.522-2.672 5.967-3.665 9.303-3.856 3.338-.192 6.681.41 9.164 1.045 1.246.32 2.29.65 3.023.902.34.116.613.216.81.29 2.24-1.54 5.104-2.482 8.731-2.422 1.784.03 3.438.25 4.966.62l.034-.012a9 9 0 0 1 .419-.144 23 23 0 0 1 1.724-.47 29 29 0 0 1 6.223-.754C56.4 1.85 62.819 3.226 67.472 9.172c1 1.279 1.347 3.339 1.311 5.658-.037 2.378-.48 5.256-1.287 8.376M55.012 11.237c-2.003-2.56-4.818-5.143-8.59-6.797a27 27 0 0 1 4.97-.525c4.665-.043 10.363 1.226 14.49 6.5.55.703.918 2.153.883 4.384-.033 2.172-.443 4.884-1.223 7.902-1.437 5.567-4.104 12.066-7.829 17.968l-.162-.203-.002-.002-.114-.144c.569-.855.905-1.877 1.105-2.918.246-1.287.3-2.693.268-4.037-.031-1.348-.148-2.67-.255-3.793l-.036-.376c-.092-.971-.164-1.722-.164-2.22 0-.952.154-1.795.326-2.734v-.001l.099-.542c.17-.964.32-2.01.242-3.208.106-.161.145-.313.157-.36.042-.174.039-.337.033-.434a4 4 0 0 0-.118-.709 14 14 0 0 0-.679-1.985c-.66-1.586-1.765-3.674-3.4-5.766m2.005 9.575c-3.47-.409-5.131.255-5.887 1.12-.84.96-.953 2.6-.405 4.795.532 2.131 1.605 4.454 2.635 6.43.491.944.965 1.793 1.357 2.497l.06.108c.378.678.715 1.28.864 1.643.158.383.328.73.505 1.05a7.4 7.4 0 0 0 .412-1.433c.209-1.09.262-2.336.233-3.61-.03-1.27-.14-2.531-.247-3.65l-.036-.385c-.09-.938-.173-1.799-.173-2.4 0-1.152.193-2.197.366-3.136l.09-.493c.15-.852.262-1.66.226-2.536M36.653 44.243c-.748-1.164-2.098-1.9-3.723-1.667q.039-.162.087-.336c.195-.7.475-1.451.794-2.308l.004-.01.149-.398c.17-.46.365-.892.586-1.382.13-.287.267-.593.414-.936.382-.888.77-1.908 1.053-3.153.567-2.5.683-5.797-.375-10.69-.45-2.081-1.596-3.36-3.13-3.952-1.456-.562-3.125-.453-4.603-.112a15.8 15.8 0 0 0-4.073 1.596q.03-.375.075-.798c.192-1.785.607-4.143 1.487-6.477.882-2.336 2.212-4.598 4.205-6.257 1.973-1.644 4.659-2.748 8.371-2.687 7.5.123 12.434 3.95 15.449 7.804 1.51 1.932 2.528 3.859 3.127 5.298.155.371.247.614.377.995-3.516-.104-5.937.252-7.317 1.831-1.54 1.762-1.418 4.307-.843 6.611.591 2.37 1.755 4.864 2.803 6.875.505.97.991 1.84 1.382 2.542l.051.092c.419.75.68 1.225.773 1.45.612 1.486 1.382 2.522 1.998 3.3l.233.293.002.002c.204.255.368.46.507.659l.012.016-.018.006c-.22.063-.492.149-.776.277a3.44 3.44 0 0 0-1.659 1.517c-.386.708-.581 1.613-.562 2.764-.145.288-.246.702-.24 1.296.024 1.983-1.189 10.202-1.673 13.009-.365 2.119-.944 3.495-1.88 4.468-.94.976-2.36 1.674-4.68 2.172-2.627.563-4.162-.04-5.13-.856-1.03-.867-1.57-2.095-1.962-3.072-.39-.978-.561-3.421-.428-2.262-.13-1.125-.23-2.542-.3-4.161-.126-2.957-.117-7.85-.067-10.188q.003-.102.002-.199c.231-1.097.006-2.18-.502-2.972m-14.922-21.41c0-.152.003-.374.011-.653.018-.558.06-1.35.163-2.299.203-1.89.645-4.428 1.605-6.973.839-2.222 2.087-4.488 3.953-6.327a38 38 0 0 0-2.52-.738c-2.383-.61-5.5-1.16-8.548-.986-3.05.175-5.913 1.068-7.952 3.227-2.03 2.15-3.404 5.73-3.109 11.638.06 1.2.538 4.22 1.377 7.963.834 3.723 2.008 8.086 3.431 11.957 1.44 3.919 3.08 7.168 4.776 8.817.834.81 1.559 1.115 2.184 1.088.619-.026 1.422-.389 2.39-1.553a146 146 0 0 1 5.484-6.215c-2.465-2.173-3.904-5.642-3.38-9.382.488-3.492.311-6.505.212-8.213-.026-.449-.077-.901-.077-1.35m13.477 23.215a1.8 1.8 0 0 0-.252-.713c-.345-.536-.938-.876-1.74-.761-.146.02-.345.132-.85.798l-.22.295c-.418.566-.971 1.316-1.742 2-.565.502-1.252.795-1.899.992-.591.18-1.223.302-1.78.409l-.147.028c-.623.12-1.132.226-1.539.377a2.3 2.3 0 0 0-.393.184c.306.173.795.36 1.434.52 1.516.383 3.351.501 4.296.303 2.033-.429 3.703-1.785 4.42-2.81.169-.24.282-.489.35-.732l.016-.617a1 1 0 0 1 .046-.273m21.995-1.697-.131.037a4 4 0 0 0-.509.179 1.43 1.43 0 0 0-.716.643c-.188.344-.359.945-.308 2.005.05.04.172.115.446.2.542.168 1.357.258 2.335.248 1.96-.022 4.214-.441 5.528-1.051a12.6 12.6 0 0 0 2.194-1.292q.4-.302.678-.563l-.045.01c-4.152.857-6.565.628-7.996.035a4 4 0 0 1-1.015-.59c-.142.05-.317.098-.46.139m-1.694 2.834q.001-.001.01.013zm-23.585-7.967.148-.397c.192-.516.437-1.061.678-1.599q.188-.412.36-.812c.354-.824.693-1.721.938-2.803.49-2.153.632-5.146-.379-9.818-.32-1.483-1.045-2.172-1.884-2.496-.916-.354-2.122-.328-3.423-.028-1.281.296-2.534.83-3.46 1.346a7.6 7.6 0 0 0-1.049.683l-.068.057q.01.215.03.525c.097 1.6.305 5.038-.221 8.8-.721 5.155 3.044 9.387 7.38 9.4q.046-.188.099-.377c.22-.79.535-1.633.851-2.481" clip-rule="evenodd"/></svg>
